X:1
T:Title
%%score { ( 1 3 ) | ( 2 4 ) }
L:1/8
M:4/4
K:Bb
V:1 treble nm="Grand Piano"
V:3 treble 
V:2 bass 
V:4 bass 
V:1
 z4 z2[Q:1/4=106] F2 | B2 A2 G2 D2 | F4 F2 [B,DF]2 | [B,EG]3 [EA] [DB]2 [B,=Ec]2 |[M:3/4] c6 | %5
[M:1/4] F2 |[M:4/4] B2 A2 G2 D2 | F4 F2 [Fd]2 | [Fc]3 [F_A=B] [=EG_B]2 [B,CEG]2 | %9
[M:3/4] [F,A,CF]6 |[M:1/4] [A,CF]2 |[M:4/4] [G,CG]2 [CFA]2 [B,FB]2 [B,DG]2 | [CEG]4 [CEF]2 [CEF]2 | %13
 [DF]2 [Fd]2 [Fc]2 [FB]2 |[M:3/4] B6 |[M:1/4] B2 |[M:4/4] B3 B A2 G2 | F4 B2 c2 | %18
 d3 [FB] [=EG]2 [Fc]2 |[M:3/4] [DFB]6 |[M:1/4] [DB]2 |[M:4/4] [EB]4[K:bass][K:treble] z4 | %22
 [Dc]4[K:bass][K:treble] z4 | [Fd]3 [Fc] [CFA]2 [A,F]2 |[M:3/4] [B,FB]2 [B,EG]2 [B,DF]2 | %25
[M:1/4] [B,FB]2 |[M:4/4] [Ge]4 [GB]2 [^Fc]2 | [Fd]4 [DB]2 [DF]2 | FGAe d2 c2 |[M:3/4] [DB]6 |] %30
V:2
 z4 z2 F,2 | B,2 A,2 G,2 D,2 | F,4 F,2 B,,2 | E,3 [C,F,] [B,,F,]2 G,,2 |[M:3/4] [F,A,F]6 | %5
[M:1/4] F,2 |[M:4/4] B,2 A,2 G,2 D,2 | F,4 F,2 [B,,B,]2 | [C,A,]3 [D,_A,] [C,G,]2 C,2 | %9
[M:3/4] F,,6 |[M:1/4] F,2 |[M:4/4] =E,2 _E,2 D,2 B,,2 | A,,4 A,,2 A,,2 | %13
 [B,,B,]2 [B,,B,]2 [C,A,]2 [D,_A,]2 |[M:3/4] [E,G,E]6 |[M:1/4] [E,G,C]2 | %16
[M:4/4] [=E,G,_D]3 [E,G,D] [E,A,D]2 [E,B,D]2 | [F,B,D]4 [G,B,=E]2 [^F,B,E]2 | %18
 [F,B,F]3 [D,B,] [C,B,]2 [F,,A,E]2 |[M:3/4] [B,,B,]6 |[M:1/4] [B,,F,]2 | %21
[M:4/4] F,4 [C,F,]2 [A,,F,]2 | F,4 [B,,F,]2 [B,,B,]2 | [F,A,]3 [E,A,] E,2 E,2 | %24
[M:3/4] D,2 E,2 B,,2 |[M:1/4] D,2 |[M:4/4] [E,B,]4 [E,E]2 [E,B,]2 | [B,,B,]4 [B,,F,]2 [B,,B,]2 | %28
 [F,A,E][F,B,E][F,CE][F,B,G] [F,A,F]2 [F,,A,E]2 |[M:3/4] [B,,F,]6 |] %30
V:3
 x8 | x8 | x8 | x8 |[M:3/4] x6 |[M:1/4] x2 |[M:4/4] x8 | x8 | x8 |[M:3/4] x6 |[M:1/4] x2 | %11
[M:4/4] x8 | x8 | x8 |[M:3/4] x6 |[M:1/4] x2 |[M:4/4] x8 | x8 | x8 |[M:3/4] x6 |[M:1/4] x2 | %21
[M:4/4] z2[K:bass] F,,2[K:treble] [EA]2 [Ec]2 | z2[K:bass] F,,2[K:treble] [DB]2 [Fd]2 | x8 | %24
[M:3/4] x6 |[M:1/4] x2 |[M:4/4] x8 | x8 | x8 |[M:3/4] x6 |] %30
V:4
 x8 | x8 | x8 | x8 |[M:3/4] x6 |[M:1/4] x2 |[M:4/4] x8 | x8 | x8 |[M:3/4] x6 |[M:1/4] x2 | %11
[M:4/4] x8 | x8 | x8 |[M:3/4] x6 |[M:1/4] x2 |[M:4/4] x8 | x8 | x8 |[M:3/4] x6 |[M:1/4] x2 | %21
[M:4/4] C,2 z2 z4 | B,,2 z2 z4 | x8 |[M:3/4] x6 |[M:1/4] x2 |[M:4/4] x8 | x8 | x8 |[M:3/4] x6 |] %30

